X:77
T: Die dienende Schwester
N: Q0075f
O: Mitteleuropa, Schweiz
R: Ballade, Adelige als Dienstmagd, Tod; Kinder - Spiel, Tanz
M: 3/4
L: 1/8
K: F
cAc | c2c2(3ddd | d2z
BGB | B2B2cc | c2z2
c2 | F4F2 | c2fed2 | e4d2 | c2z

@@@ Tune index: 1132
